32x32/apps/void-wizard.svg

<svg height="32" width="32" xmlns="http://www.w3.org/2000/svg"><path d="m16.568 3a2.911 2.789 0 0 0 -1.524.373l-10.588 5.857a2.911 2.789 0 0 0 -1.456 2.414v11.712a2.911 2.789 0 0 0 1.456 2.415l10.588 5.855a2.911 2.789 0 0 0 2.911 0l10.59-5.855a2.911 2.789 0 0 0 1.455-2.415v-11.712a2.911 2.789 0 0 0 -1.456-2.415l-10.589-5.856a2.911 2.789 0 0 0 -1.387-.372z" opacity=".2"/><path d="m16.568 2a2.911 2.789 0 0 0 -1.524.373l-10.588 5.857a2.911 2.789 0 0 0 -1.456 2.414v11.712a2.911 2.789 0 0 0 1.456 2.415l10.588 5.855a2.911 2.789 0 0 0 2.911 0l10.59-5.855a2.911 2.789 0 0 0 1.455-2.415v-11.712a2.911 2.789 0 0 0 -1.456-2.415l-10.589-5.856a2.911 2.789 0 0 0 -1.387-.372z" fill="#17191e"/><path d="m16.5 9a8.5 8.5 0 0 0 -4.92 1.577l2.047 2.046a5.667 5.667 0 0 1 2.873-.79 5.667 5.667 0 0 1 5.667 5.667 5.667 5.667 0 0 1 -.79 2.873l2.043 2.044a8.5 8.5 0 0 0 1.58-4.917 8.5 8.5 0 0 0 -8.5-8.5z" opacity=".2"/><path d="m16.5 8a8.5 8.5 0 0 0 -4.92 1.577l2.047 2.046a5.667 5.667 0 0 1 2.873-.79 5.667 5.667 0 0 1 5.667 5.667 5.667 5.667 0 0 1 -.79 2.873l2.043 2.044a8.5 8.5 0 0 0 1.58-4.917 8.5 8.5 0 0 0 -8.5-8.5z" fill="#d895d8"/><path d="m9.58 12.583a8.5 8.5 0 0 0 -1.58 4.917 8.5 8.5 0 0 0 8.5 8.5 8.5 8.5 0 0 0 4.92-1.577l-2.047-2.046a5.667 5.667 0 0 1 -2.873.79 5.667 5.667 0 0 1 -5.667-5.667 5.667 5.667 0 0 1 .79-2.873z" opacity=".2"/><path d="m9.58 11.583a8.5 8.5 0 0 0 -1.58 4.917 8.5 8.5 0 0 0 8.5 8.5 8.5 8.5 0 0 0 4.92-1.577l-2.047-2.046a5.667 5.667 0 0 1 -2.873.79 5.667 5.667 0 0 1 -5.667-5.667 5.667 5.667 0 0 1 .79-2.873z" fill="#9e4174"/><circle cx="16.5" cy="17.5" opacity=".2" r="2.5"/><circle cx="16.5" cy="16.5" fill="#d895d8" r="2.5"/><g fill="#f4f4f7"><path d="m16.568 2a2.911 2.789 0 0 0 -1.525.373l-10.588 5.856a2.911 2.789 0 0 0 -1.455 2.416v1a2.911 2.789 0 0 1 1.455-2.416l10.588-5.856a2.911 2.789 0 0 1 1.525-.373 2.911 2.789 0 0 1 1.387.373l10.59 5.856a2.911 2.789 0 0 1 1.455 2.416v-1a2.911 2.789 0 0 0 -1.455-2.416l-10.59-5.856a2.911 2.789 0 0 0 -1.387-.373z" opacity=".1"/><path d="m16.5 8a8.5 8.5 0 0 0 -4.92 1.576l.613.613a8.5 8.5 0 0 1 4.307-1.189 8.5 8.5 0 0 1 8.475 7.992 8.5 8.5 0 0 0 .025-.492 8.5 8.5 0 0 0 -8.5-8.5zm5.64 9a5.667 5.667 0 0 1 -.763 2.373l.336.336a5.667 5.667 0 0 0 .453-2.209 5.667 5.667 0 0 0 -.025-.5z" opacity=".2"/><path d="m9.58 11.584a8.5 8.5 0 0 0 -1.58 4.916 8.5 8.5 0 0 0 .025.508 8.5 8.5 0 0 1 1.555-4.424l1.707 1.707a5.667 5.667 0 0 1 .336-.664zm1.28 5.416a5.667 5.667 0 0 0 -.026.5 5.667 5.667 0 0 0 5.666 5.666 5.667 5.667 0 0 0 2.873-.789l1.434 1.434a8.5 8.5 0 0 0 .613-.387l-2.047-2.047a5.667 5.667 0 0 1 -2.873.789 5.667 5.667 0 0 1 -5.64-5.166z" opacity=".1"/><path d="m16.5 14a2.5 2.5 0 0 0 -2.5 2.5 2.5 2.5 0 0 0 .053.496 2.5 2.5 0 0 1 2.447-1.996 2.5 2.5 0 0 1 2.447 2.004 2.5 2.5 0 0 0 .053-.504 2.5 2.5 0 0 0 -2.5-2.5z" opacity=".2"/></g></svg>

<svg height="32" width="32" xmlns="http://www.w3.org/2000/svg">
    <path d="M16.568 3a2.911 2.789 0 0 0-1.524.373L4.456 9.23A2.911 2.789 0 0 0 3 11.644v11.712a2.911 2.789 0 0 0 1.456 2.415l10.588 5.855a2.911 2.789 0 0 0 2.911 0l10.59-5.855A2.911 2.789 0 0 0 30 23.356V11.644a2.911 2.789 0 0 0-1.456-2.415L17.955 3.373a2.911 2.789 0 0 0-1.387-.372z" opacity=".2"/>
    <path d="M16.568 2a2.911 2.789 0 0 0-1.524.373L4.456 8.23A2.911 2.789 0 0 0 3 10.644v11.712a2.911 2.789 0 0 0 1.456 2.415l10.588 5.855a2.911 2.789 0 0 0 2.911 0l10.59-5.855A2.911 2.789 0 0 0 30 22.356V10.644a2.911 2.789 0 0 0-1.456-2.415L17.955 2.373a2.911 2.789 0 0 0-1.387-.372z" fill="#17191e"/>
    <path d="M16.5 9a8.5 8.5 0 0 0-4.92 1.577l2.047 2.046a5.667 5.667 0 0 1 2.873-.79 5.667 5.667 0 0 1 5.667 5.667 5.667 5.667 0 0 1-.79 2.873l2.043 2.044A8.5 8.5 0 0 0 25 17.5 8.5 8.5 0 0 0 16.5 9z" opacity=".2"/>
    <path d="M16.5 8a8.5 8.5 0 0 0-4.92 1.577l2.047 2.046a5.667 5.667 0 0 1 2.873-.79 5.667 5.667 0 0 1 5.667 5.667 5.667 5.667 0 0 1-.79 2.873l2.043 2.044A8.5 8.5 0 0 0 25 16.5 8.5 8.5 0 0 0 16.5 8z" fill="#d895d8"/>
    <path d="M9.58 12.583A8.5 8.5 0 0 0 8 17.5a8.5 8.5 0 0 0 8.5 8.5 8.5 8.5 0 0 0 4.92-1.577l-2.047-2.046a5.667 5.667 0 0 1-2.873.79 5.667 5.667 0 0 1-5.667-5.667 5.667 5.667 0 0 1 .79-2.873z" opacity=".2"/>
    <path d="M9.58 11.583A8.5 8.5 0 0 0 8 16.5a8.5 8.5 0 0 0 8.5 8.5 8.5 8.5 0 0 0 4.92-1.577l-2.047-2.046a5.667 5.667 0 0 1-2.873.79 5.667 5.667 0 0 1-5.667-5.667 5.667 5.667 0 0 1 .79-2.873z" fill="#9e4174"/>
    <circle cx="16.5" cy="17.5" opacity=".2" r="2.5"/>
    <circle cx="16.5" cy="16.5" fill="#d895d8" r="2.5"/>
    <g fill="#f4f4f7">
        <path d="M16.568 2a2.911 2.789 0 0 0-1.525.373L4.455 8.229A2.911 2.789 0 0 0 3 10.645v1a2.911 2.789 0 0 1 1.455-2.416l10.588-5.856A2.911 2.789 0 0 1 16.568 3a2.911 2.789 0 0 1 1.387.373l10.59 5.856A2.911 2.789 0 0 1 30 11.645v-1a2.911 2.789 0 0 0-1.455-2.416l-10.59-5.856A2.911 2.789 0 0 0 16.568 2z" opacity=".1"/>
        <path d="M16.5 8a8.5 8.5 0 0 0-4.92 1.576l.613.613A8.5 8.5 0 0 1 16.5 9a8.5 8.5 0 0 1 8.475 7.992A8.5 8.5 0 0 0 25 16.5 8.5 8.5 0 0 0 16.5 8zm5.64 9a5.667 5.667 0 0 1-.763 2.373l.336.336a5.667 5.667 0 0 0 .453-2.209 5.667 5.667 0 0 0-.025-.5z" opacity=".2"/>
        <path d="M9.58 11.584A8.5 8.5 0 0 0 8 16.5a8.5 8.5 0 0 0 .025.508 8.5 8.5 0 0 1 1.555-4.424l1.707 1.707a5.667 5.667 0 0 1 .336-.664zM10.86 17a5.667 5.667 0 0 0-.026.5 5.667 5.667 0 0 0 5.666 5.666 5.667 5.667 0 0 0 2.873-.789l1.434 1.434a8.5 8.5 0 0 0 .613-.387l-2.047-2.047a5.667 5.667 0 0 1-2.873.789A5.667 5.667 0 0 1 10.86 17z" opacity=".1"/>
        <path d="M16.5 14a2.5 2.5 0 0 0-2.5 2.5 2.5 2.5 0 0 0 .053.496A2.5 2.5 0 0 1 16.5 15a2.5 2.5 0 0 1 2.447 2.004A2.5 2.5 0 0 0 19 16.5a2.5 2.5 0 0 0-2.5-2.5z" opacity=".2"/>
    </g>
</svg>
